svg/ionicons/arrow-down-right-box.svg

<svg width="512" height="512" viewBox="0 0 512 512" xmlns="http://www.w3.org/2000/svg">
<path fill-rule="evenodd" clip-rule="evenodd" d="M480 331.636L480 464C480 468.243 478.314 472.313 475.314 475.314C472.313 478.314 468.243 480 464 480H331.636C322.8 480 315.636 472.837 315.636 464C315.636 455.163 322.8 448 331.636 448H425.373L374.245 396.872C378.961 394.253 383.333 390.972 387.216 387.089C391.054 383.251 394.304 378.935 396.908 374.281L448 425.373L448 331.636C448 322.8 455.163 315.636 464 315.636C472.837 315.636 480 322.8 480 331.636ZM396.908 374.281C401.754 365.621 404.364 355.79 404.364 345.691V90.5455C404.364 75.0182 398.195 60.127 387.216 49.1476C376.237 38.1682 361.345 32 345.818 32L90.5454 32C75.0182 32 60.1269 38.1682 49.1475 49.1476C38.1681 60.127 31.9999 75.0182 31.9999 90.5455V345.818C31.9999 361.345 38.1681 376.237 49.1475 387.216C60.1269 398.195 75.0182 404.364 90.5454 404.364H345.818C346.626 404.364 347.42 404.304 348.196 404.188C357.394 403.815 366.307 401.28 374.245 396.872L204.686 227.314C198.438 221.065 198.438 210.935 204.686 204.686C210.935 198.438 221.065 198.438 227.314 204.686L396.908 374.281Z" />
</svg>

<svg xmlns="http://www.w3.org/2000/svg" width="512" height="512" viewBox="0 0 512 512"><path fill-rule="evenodd" d="M480 331.636V464c0 4.243-1.686 8.313-4.686 11.314A16 16 0 01464 480H331.636c-8.836 0-16-7.163-16-16s7.164-16 16-16h93.737l-51.128-51.128a58.5 58.5 0 0022.663-22.591L448 425.373v-93.737c0-8.836 7.163-16 16-16s16 7.164 16 16m-83.092 42.645a58.54 58.54 0 007.456-28.59V90.546A58.547 58.547 0 00345.818 32H90.545A58.546 58.546 0 0032 90.546v255.272a58.545 58.545 0 0058.545 58.546h255.273q1.213-.001 2.378-.176a58.54 58.54 0 0026.049-7.316L204.686 227.314c-6.248-6.249-6.248-16.379 0-22.628s16.379-6.248 22.628 0z" clip-rule="evenodd"/></svg>
